X: 153
T: Le'an Noshevet Haruach
C: Nachum Heiman 1960
N: from recording in Dance with Rivka Sturman
M: 2/4
L: 1/8
K: Bb clef=treble
F,     |D3C   |B,CDE  |GE2G|\
FB2_G  | ^F2EE|EEDE   |F2z2|
B,G,B,E| FGE2 |B,G,B,E|FGE2|\
F^F2B,C|^C2E2 |F4     |


